src/assets/images/icon1.svg

<svg width="70" height="70" viewBox="0 0 70 70" fill="none" xmlns="http://www.w3.org/2000/svg">
<path d="M25.9001 11.003C30.6229 5.29249 39.3771 5.29249 44.0999 11.003C45.9062 13.1869 48.4376 14.6484 51.2321 15.1207C58.5389 16.3555 62.916 23.9369 60.332 30.8822C59.3438 33.5385 59.3438 36.4615 60.332 39.1177C62.916 46.0631 58.5389 53.6445 51.2321 54.8793C48.4376 55.3516 45.9062 56.8131 44.0999 58.997C39.3771 64.7075 30.6229 64.7075 25.9001 58.997C24.0938 56.8131 21.5624 55.3516 18.7679 54.8793C11.4611 53.6445 7.08398 46.0631 9.66799 39.1177C10.6562 36.4615 10.6562 33.5385 9.66799 30.8822C7.08398 23.9369 11.4611 16.3555 18.7679 15.1207C21.5624 14.6484 24.0938 13.1869 25.9001 11.003Z" fill="url(#paint0_linear_1_1027)"/>
<path d="M39 43V27C39 26.4696 38.7893 25.9609 38.4142 25.5858C38.0391 25.2107 37.5304 25 37 25H33C32.4696 25 31.9609 25.2107 31.5858 25.5858C31.2107 25.9609 31 26.4696 31 27V43" stroke="white" stroke-width="2" stroke-linecap="round" stroke-linejoin="round"/>
<path d="M43 29H27C25.8954 29 25 29.8954 25 31V41C25 42.1046 25.8954 43 27 43H43C44.1046 43 45 42.1046 45 41V31C45 29.8954 44.1046 29 43 29Z" stroke="white" stroke-width="2" stroke-linecap="round" stroke-linejoin="round"/>
<defs>
<linearGradient id="paint0_linear_1_1027" x1="49" y1="11.5" x2="13.5" y2="60" gradientUnits="userSpaceOnUse">
<stop stop-color="#87C752"/>
<stop offset="1" stop-color="#4AB8D2"/>
</linearGradient>
</defs>
</svg>

<svg xmlns="http://www.w3.org/2000/svg" width="70" height="70" fill="none" viewBox="0 0 70 70"><path fill="url(#a)" d="M25.9 11.003c4.723-5.71 13.477-5.71 18.2 0a11.8 11.8 0 0 0 7.132 4.118c7.307 1.234 11.684 8.816 9.1 15.761a11.8 11.8 0 0 0 0 8.236c2.584 6.945-1.793 14.526-9.1 15.761a11.8 11.8 0 0 0-7.132 4.118c-4.723 5.71-13.477 5.71-18.2 0a11.8 11.8 0 0 0-7.132-4.118c-7.307-1.234-11.684-8.816-9.1-15.761a11.8 11.8 0 0 0 0-8.236c-2.584-6.945 1.793-14.527 9.1-15.761a11.8 11.8 0 0 0 7.132-4.118"/><path stroke="#fff" stroke-linecap="round" stroke-linejoin="round" stroke-width="2" d="M39 43V27a2 2 0 0 0-2-2h-4a2 2 0 0 0-2 2v16"/><path stroke="#fff" stroke-linecap="round" stroke-linejoin="round" stroke-width="2" d="M43 29H27a2 2 0 0 0-2 2v10a2 2 0 0 0 2 2h16a2 2 0 0 0 2-2V31a2 2 0 0 0-2-2"/><defs><linearGradient id="a" x1="49" x2="13.5" y1="11.5" y2="60" gradientUnits="userSpaceOnUse"><stop stop-color="#87c752"/><stop offset="1" stop-color="#4ab8d2"/></linearGradient></defs></svg>
